32x32/apps/steam_icon_250820.svg

<svg height="32" width="32" xmlns="http://www.w3.org/2000/svg"><rect height="28" opacity=".2" rx="5.714" ry="5.6" transform="matrix(0 -1 -1 0 0 0)" width="20" x="-27" y="-30"/><rect fill="#4f4f4f" height="28" rx="5.714" ry="5.6" transform="matrix(0 -1 -1 0 0 0)" width="20" x="-26" y="-30"/><path d="m26 19.571v-5.141c0-1.9-1.784-3.429-4-3.429h-12c-2.216 0-4 1.53-4 3.429v5.142c0 1.899 1.784 3.428 4 3.428h2.5l3.5-2 3.5 2h2.5c2.216 0 4-1.53 4-3.429z" opacity=".2"/><path d="m26 18.571v-5.141c0-1.9-1.784-3.429-4-3.429h-12c-2.216 0-4 1.53-4 3.429v5.142c0 1.899 1.784 3.428 4 3.428h2.5l3.5-2 3.5 2h2.5c2.216 0 4-1.53 4-3.429z" fill="#48aad5"/><g transform="rotate(90)"><rect height="3" opacity=".2" rx=".625" ry=".75" width="5" x="14" y="-4"/><rect fill="#929292" height="3" rx=".625" ry=".75" width="5" x="13" y="-4"/><rect height="3" opacity=".2" rx=".625" ry=".75" width="5" x="14" y="-31"/><rect fill="#929292" height="3" rx=".625" ry=".75" width="5" x="13" y="-31"/></g><path d="m7.6 6c-3.103 0-5.6 2.55-5.6 5.715v1c0-3.166 2.497-5.715 5.6-5.715h16.8c3.103 0 5.6 2.55 5.6 5.715v-1c0-3.166-2.497-5.715-5.6-5.715z" fill="#f4f4f7" opacity=".1"/></svg>

<svg height="32" width="32" xmlns="http://www.w3.org/2000/svg">
    <rect height="28" opacity=".2" rx="5.714" ry="5.6" transform="matrix(0 -1 -1 0 0 0)" width="20" x="-27" y="-30"/>
    <rect fill="#4f4f4f" height="28" rx="5.714" ry="5.6" transform="matrix(0 -1 -1 0 0 0)" width="20" x="-26" y="-30"/>
    <path d="M26 19.571V14.43c0-1.9-1.784-3.429-4-3.429H10c-2.216 0-4 1.53-4 3.429v5.142C6 21.471 7.784 23 10 23h2.5l3.5-2 3.5 2H22c2.216 0 4-1.53 4-3.429z" opacity=".2"/>
    <path d="M26 18.571V13.43c0-1.9-1.784-3.429-4-3.429H10c-2.216 0-4 1.53-4 3.429v5.142C6 20.471 7.784 22 10 22h2.5l3.5-2 3.5 2H22c2.216 0 4-1.53 4-3.429z" fill="#48aad5"/>
    <g transform="rotate(90)">
        <rect height="3" opacity=".2" rx=".625" ry=".75" width="5" x="14" y="-4"/>
        <rect fill="#929292" height="3" rx=".625" ry=".75" width="5" x="13" y="-4"/>
        <rect height="3" opacity=".2" rx=".625" ry=".75" width="5" x="14" y="-31"/>
        <rect fill="#929292" height="3" rx=".625" ry=".75" width="5" x="13" y="-31"/>
    </g>
    <path d="M7.6 6C4.497 6 2 8.55 2 11.715v1C2 9.549 4.497 7 7.6 7h16.8c3.103 0 5.6 2.55 5.6 5.715v-1C30 8.549 27.503 6 24.4 6z" fill="#f4f4f7" opacity=".1"/>
</svg>
